icons/nuget/nuget-original.svg

<?xml version="1.0" encoding="UTF-8"?>
<svg xmlns="http://www.w3.org/2000/svg" xmlns:xlink="http://www.w3.org/1999/xlink" width="128px" height="128px" viewBox="0 0 128 128" version="1.1">
<g id="surface1">
<path style=" stroke:none;fill-rule:nonzero;fill:rgb(0%,0%,0%);fill-opacity:1;" d="M 9.3125 2.507812 C 5.957031 2.9375 2.992188 4.925781 1.355469 7.851562 C 0.457031 9.457031 0.0429688 11.070312 0.0390625 12.96875 C 0.0390625 14.757812 0.335938 16.085938 1.101562 17.65625 C 2.523438 20.59375 5.21875 22.664062 8.570312 23.386719 C 9.429688 23.570312 11.519531 23.585938 12.417969 23.417969 C 16.261719 22.695312 19.34375 20.042969 20.585938 16.398438 C 21.007812 15.175781 21.09375 14.574219 21.09375 13 C 21.09375 11.46875 21.050781 11.117188 20.675781 9.90625 C 19.613281 6.414062 16.789062 3.695312 13.269531 2.78125 C 12.09375 2.476562 10.445312 2.363281 9.3125 2.507812 Z M 9.3125 2.507812 "/>
<path style=" stroke:none;fill-rule:nonzero;fill:rgb(0%,0%,0%);fill-opacity:1;" d="M 56.5 25.53125 C 42.585938 26.71875 30.949219 36.625 27.601562 50.125 C 27.179688 51.8125 27.023438 52.742188 26.738281 55.15625 C 26.636719 56.019531 26.585938 93.445312 26.6875 95.125 C 26.835938 97.738281 27.210938 99.96875 27.90625 102.375 C 31.011719 113.144531 39.53125 121.644531 50.273438 124.6875 C 52.101562 125.199219 54.039062 125.570312 56.09375 125.792969 C 57.101562 125.898438 58.164062 125.90625 76.8125 125.90625 C 97.648438 125.90625 96.882812 125.917969 99.0625 125.617188 C 104.4375 124.882812 109.6875 122.726562 114.023438 119.46875 C 115.769531 118.164062 117.945312 116.136719 119.261719 114.59375 C 120.523438 113.105469 121.960938 111.070312 122.90625 109.40625 C 124.820312 106.050781 126.230469 101.949219 126.773438 98.15625 C 127.105469 95.882812 127.082031 97.332031 127.105469 76.375 C 127.125 62.71875 127.113281 56.664062 127.0625 55.9375 C 126.59375 48.914062 124.054688 42.5625 119.511719 37.0625 C 118.75 36.136719 116.429688 33.820312 115.5 33.050781 C 110.84375 29.195312 105.632812 26.800781 99.8125 25.851562 C 97.332031 25.445312 99.042969 25.476562 77.25 25.460938 C 61.3125 25.457031 57.28125 25.46875 56.5 25.53125 Z M 53.625 40.425781 C 58.425781 41.28125 62.355469 44.636719 63.90625 49.199219 C 64.882812 52.082031 64.855469 55.125 63.835938 57.96875 C 63.15625 59.863281 61.835938 61.863281 60.40625 63.15625 C 57.851562 65.488281 54.804688 66.6875 51.4375 66.6875 C 47.804688 66.6875 44.605469 65.367188 42.054688 62.820312 C 39.90625 60.667969 38.617188 58.039062 38.25 55.03125 C 38.148438 54.21875 38.164062 52.53125 38.28125 51.6875 C 39.105469 45.679688 43.851562 41.054688 49.9375 40.3125 C 50.730469 40.21875 52.804688 40.28125 53.625 40.425781 Z M 96.1875 73.03125 C 100.882812 73.632812 104.988281 75.613281 108.367188 78.90625 C 110.898438 81.375 112.625 84.132812 113.71875 87.46875 C 114.425781 89.601562 114.6875 91.207031 114.730469 93.59375 C 114.773438 96.023438 114.570312 97.71875 113.960938 99.863281 C 112.644531 104.542969 109.5625 108.800781 105.5 111.554688 C 100.25 115.117188 93.851562 116.125 87.664062 114.367188 C 85.320312 113.707031 82.523438 112.269531 80.5625 110.726562 C 75.398438 106.648438 72.429688 100.554688 72.4375 94.011719 C 72.445312 86.730469 76.210938 79.960938 82.4375 76.070312 C 85.238281 74.3125 88.40625 73.261719 91.875 72.9375 C 92.730469 72.855469 95.269531 72.914062 96.1875 73.03125 Z M 96.1875 73.03125 "/>
</g>
</svg>

<svg xmlns="http://www.w3.org/2000/svg" viewBox="0 0 128 128" version="1.1"><g stroke="none" fill-rule="nonzero" fill="#004880" fill-opacity="1"><path d="M9.313 2.508c-3.356.43-6.32 2.418-7.958 5.344C.457 9.457.043 11.07.04 12.969c0 1.789.297 3.117 1.063 4.687 1.421 2.938 4.117 5.008 7.468 5.73.86.184 2.95.2 3.848.032 3.844-.723 6.926-3.375 8.168-7.02.422-1.222.508-1.824.508-3.398 0-1.531-.043-1.883-.418-3.094-1.063-3.492-3.887-6.21-7.406-7.125-1.176-.304-2.825-.418-3.957-.273zm0 0M56.5 25.531C42.586 26.72 30.95 36.625 27.602 50.125c-.422 1.688-.579 2.617-.864 5.031-.101.864-.152 38.29-.05 39.969.148 2.613.523 4.844 1.218 7.25 3.106 10.77 11.625 19.27 22.367 22.313 1.829.511 3.766.882 5.82 1.105 1.009.105 2.071.113 20.72.113 20.835 0 20.07.012 22.25-.289a32.469 32.469 0 0 0 14.96-6.148c1.747-1.305 3.922-3.332 5.239-4.875 1.261-1.489 2.699-3.524 3.644-5.188 1.914-3.355 3.324-7.457 3.867-11.25.332-2.273.309-.824.332-21.781.02-13.656.008-19.71-.043-20.438-.468-7.023-3.007-13.374-7.55-18.874-.762-.926-3.082-3.243-4.012-4.012-4.656-3.856-9.867-6.25-15.688-7.2-2.48-.406-.769-.374-22.562-.39-15.938-.004-19.969.008-20.75.07zm-2.875 14.895c4.8.855 8.73 4.21 10.281 8.773.977 2.883.95 5.926-.07 8.77-.68 1.894-2 3.894-3.43 5.187-2.554 2.332-5.601 3.532-8.968 3.532-3.633 0-6.833-1.32-9.383-3.868-2.149-2.152-3.438-4.78-3.805-7.789-.102-.812-.086-2.5.031-3.343.824-6.008 5.57-10.633 11.657-11.376.792-.093 2.867-.03 3.687.114zM96.188 73.03c4.695.602 8.8 2.582 12.18 5.875 2.53 2.469 4.257 5.227 5.35 8.563.708 2.133.97 3.738 1.012 6.125.043 2.43-.16 4.125-.77 6.27-1.315 4.679-4.397 8.937-8.46 11.69-5.25 3.563-11.648 4.571-17.836 2.813-2.344-.66-5.14-2.097-7.102-3.64-5.164-4.079-8.132-10.172-8.124-16.715.007-7.282 3.773-14.051 10-17.942 2.8-1.757 5.968-2.808 9.437-3.132.855-.083 3.395-.024 4.313.093zm0 0"/></g></svg>
